X: 4419
T: "CRACOVIENNE" POLKA
R: Polka
%R: polka
B: James Kerr "Merry Melodies" v.4 p.46 #419
Z: 2016 John Chambers <jc:trillian.mit.edu>
M: 2/4
L: 1/8
K: G
G |\
FAce | dBBz | d(3(d/e/d/) cA | GBB>G |\
FAce | dBBz | d(3(d/e/d/) cA | GBG :|
|: G |\
cege | cBBz | d(3(d/e/d/) cA | GBB>G |\
cege | dBBz | d(3(d/e/d/) cA | GBG :|

%%sep 1 1 500
%%sep 1 1 500

